src/asset/24px/menu.svg

<svg width="24" height="24" viewBox="0 0 24 24" fill="none" xmlns="http://www.w3.org/2000/svg">
<path fill-rule="evenodd" clip-rule="evenodd" d="M3 5.99973C3 5.44744 3.44772 4.99973 4 4.99973H20C20.5523 4.99973 21 5.44744 21 5.99973C21 6.55201 20.5523 6.99973 20 6.99973H4C3.44772 6.99973 3 6.55201 3 5.99973ZM3 11.9997C3 11.4474 3.44772 10.9997 4 10.9997H20C20.5523 10.9997 21 11.4474 21 11.9997C21 12.552 20.5523 12.9997 20 12.9997H4C3.44772 12.9997 3 12.552 3 11.9997ZM3 17.9997C3 17.4474 3.44772 16.9997 4 16.9997H20C20.5523 16.9997 21 17.4474 21 17.9997C21 18.552 20.5523 18.9997 20 18.9997H4C3.44772 18.9997 3 18.552 3 17.9997Z" fill="currentColor"/>
</svg>

<svg width="24" height="24" fill="none" xmlns="http://www.w3.org/2000/svg"><path fill-rule="evenodd" clip-rule="evenodd" d="M3 6a1 1 0 011-1h16a1 1 0 110 2H4a1 1 0 01-1-1zm0 6a1 1 0 011-1h16a1 1 0 110 2H4a1 1 0 01-1-1zm0 6a1 1 0 011-1h16a1 1 0 110 2H4a1 1 0 01-1-1z" fill="currentColor"/></svg>
